!!!OTL: De Malbrough (2-16), S. 36
!!!id: K1108
**kern
*clefG2
*k[]
*G:
{8b
=1
8b
8b
16g
8b
8a
8b
16g
=2
4cc
4b
=3
16a
16a
16a
16a
16a
16a
16g
16a
=4
8b
8a
8g}
=5
{8b
=6
8b
8b
16g
8b
8a
8b
16g
=7
4cc
8b
8dd
=8
8b
8g
8a
8a
=9
4g}
8r
=10
{8b
=11
8dd
8dd
8ee
8ee
=12
4dd
8r
8b
=13
8dd
8dd
8ee
8ee
=14
4dd}
8r
==
*-
!!!minrhy: 16
!!!meters: 2/4 ]  ZZ[3
!!!cut: De Malbrough (2-16), S. 36
!!!reg: Luxemburg
!!!trd: KINTZELE, Guillaume: An der Ucht, Bd. 2, Luxemburg 1927
!!!rhy1: X_  X_X_(X_X_X_)  X__X__  XXXXXXXX  X_X_X_
!!!rhy2: X_  X_X_(X_X_X_)  X__X_X_  X_X_X_X_  X__0_
!!!key: K1108  16  G 2/4 ]  ZZ[3
!!!mod: SECHSTONSKALA DUR ?]  AMBITUS[6
!!!kad: 115
!!!akz: 3423_3431_5555_
!!!fot: 'a__aw_b__
!!!for: 'a__b__c__
!!!fok: '\__^d_~a_
!! PHRAS[AUFTAKTIG]
!!!fkt: historisches, Kriegs-, Soldatenlied
!!!bem: in der Quelle mit einer 2. Stimme versehen
!! KINTZELE
!! PR[39] 2K[5] 2G[16] 3K[7] 3G[5] 4A[0] 4Ü[0] 5A[0] 6K[0] 6G[0]
!! 7K[0] 7G[0] 8A[0] MEHR[0] SI[32] ABS[44] SR[20] SP[11]
!! ST[12] 2k[5] 2g[16] 3k[5] 3g[5] 4d[0] 4ü[0] 5d[0] 6k[0] 6g[0]
!! 7k[0] 7g[0] 8d[0] mehr[0] si[30] dm[+2] sr[20] sp[9]
!! 1F[13] 2F[65] 3F[10] 4F[0] LF[0] 2P[0] 3P[0] 4P[0] TRI[0] DF[4] AB[48]
!! TF[0] U3K[0] U3[0] U4[0] U4Ü[0] U5[0] U6K[0] U6[0] U7K[0] U7[0]
!! N1[9] N2K[0] N2[20] N3K[0] N3[42] N4[4] N4Ü[0] N5[16] N6K[0] N6[9]
!!!n7k: 0] N7[0] O1[0] O2K[0] O2[0] O3K[0] O3[0] HÖ[0
